logos/lit.svg

<?xml version="1.0" encoding="UTF-8"?>
<svg width="512px" height="242px" viewBox="0 0 512 242" version="1.1" xmlns="http://www.w3.org/2000/svg" xmlns:xlink="http://www.w3.org/1999/xlink" preserveAspectRatio="xMidYMid">
    <title>Lit</title>
    <g>
				<path d="M475.256471,93.9670588 L475.256471,128.662588 L512,128.662588 L512,147.456 L475.256471,147.456 L475.256471,190.343529 C475.256471,194.680471 475.376941,199.017412 475.858824,202.752 C476.822588,209.136941 480.677647,215.401412 485.978353,217.810824 C492.845176,220.943059 497.664,220.340706 512,219.858824 L508.506353,240.579765 C507.542588,241.061647 503.687529,240.941176 500.073412,240.941176 C491.640471,240.941176 459.836235,243.952941 453.330824,211.184941 C452.246588,205.522824 452.487529,199.740235 452.487529,190.825412 L452.487529,147.696941 L436.103529,147.696941 L436.344471,128.542118 L452.487529,128.542118 L452.487529,93.9670588 L475.256471,93.9670588 Z M412.973176,128.542118 L412.973176,238.772706 L390.324706,238.772706 L390.324706,128.542118 L412.973176,128.542118 Z M412.973176,93.9670588 L412.973176,113.603765 L390.083765,113.603765 L390.083765,93.9670588 L412.973176,93.9670588 Z M312.259765,217.088 L370.326588,217.088 L348.641882,238.772706 L289.129412,238.772706 L289.129412,93.9670588 L312.259765,93.9670588 L312.259765,217.088 Z" fill="#000000"></path>
				<polygon fill="#00E8FF" points="48.1882353 144.564706 67.7087647 110.887603 96.4960074 96.4960074 144.664882 144.664882 152.8215 191.161956 144.564706 240.941176 96.3764706 192.752941 67.7087647 173.466441"></polygon>
				<path d="M96.3764706,192.752941 L96.3764706,96.3764706 L144.564706,48.1882353 L144.564706,144.564706 L96.3764706,192.752941 Z M0,192.752941 L48.1882353,240.941176 L55.1165294,195.311662 L48.1882353,144.564706 L19.9211618,162.416338 L0,192.752941 Z" fill="#283198"></path>
				<path d="M48.1882353,144.564706 L48.1882353,48.1882353 L96.3764706,0 L96.3764706,96.3764706 L48.1882353,144.564706 Z M144.564706,240.941176 L144.564706,144.564706 L192.752941,96.3764706 L192.752941,192.752941 L144.564706,240.941176 Z M0,192.752941 L0,96.3764706 L48.1882353,144.564706 L0,192.752941 Z" fill="#324FFF"></path>
				<polygon fill="#00FFFF" points="48.1882353 240.941176 48.1882353 144.564706 96.3764706 192.752941"></polygon>
		</g>
</svg>

<svg width="512" height="242" xmlns="http://www.w3.org/2000/svg" preserveAspectRatio="xMidYMid">
	<path d="M475.256 93.967v34.696H512v18.793h-36.744v42.888c0 4.336.12 8.673.603 12.408.964 6.385 4.819 12.65 10.12 15.059 6.866 3.132 11.685 2.53 26.021 2.048l-3.494 20.72c-.963.483-4.818.362-8.433.362-8.433 0-40.237 3.012-46.742-29.756-1.084-5.662-.843-11.445-.843-20.36v-43.128h-16.384l.24-19.155h16.144V93.967h22.768Zm-62.283 34.575v110.23h-22.648v-110.23h22.648Zm0-34.575v19.637h-22.89V93.967h22.89ZM312.26 217.088h58.067l-21.685 21.685h-59.513V93.967h23.13v123.121Z"/>
	<path fill="#00E8FF" d="m48.188 144.565 19.52-33.677 28.788-14.392 48.169 48.169 8.156 46.497-8.256 49.78-48.189-48.19-28.667-19.286z"/>
	<path d="M96.376 192.753V96.376l48.189-48.188v96.377l-48.189 48.188Zm-96.376 0 48.188 48.188 6.929-45.63-6.929-50.746-28.267 17.851L0 192.753Z" fill="#283198"/>
	<path d="M48.188 144.565V48.188L96.376 0v96.376l-48.188 48.189Zm96.377 96.376v-96.376l48.188-48.189v96.377l-48.188 48.188ZM0 192.753V96.376l48.188 48.189L0 192.753Z" fill="#324FFF"/>
	<path fill="#0FF" d="M48.188 240.941v-96.376l48.188 48.188z"/>
</svg>
